X: 1
T: Ali Bobo
Z: Thing
S: https://thesession.org/tunes/15332#setting28575
R: strathspey
M: 4/4
L: 1/8
K: Amaj
A>B |: c>B A>B c<e f2 | e>c A<c B2 A>B | c>B A>B c<e f2 |1 e>c B>c A2 A>B :|2 e>c B>c A2 A2 |
a>e c<A f2 a>f | e>c A<c B2 c>e | a>e c<A f2 a>f | e>c A<c A2 c>e |
a>e c<A f2 a>f | e>c A<c B2 A>B | c>B A>B c<e f2 | e>c B>c A2 A2 |]
